source/img/icon_facebook.svg

<svg width="22" height="22" viewBox="0 0 22 22" fill="none" xmlns="http://www.w3.org/2000/svg">
<path d="M16.5 1.83325H13.75C12.5344 1.83325 11.3686 2.30674 10.5091 3.14957C9.64956 3.99239 9.16667 5.1355 9.16667 6.32743V9.02394H6.41667V12.6193H9.16667V19.81H12.8333V12.6193H15.5833L16.5 9.02394H12.8333V6.32743C12.8333 6.08905 12.9299 5.86042 13.1018 5.69186C13.2737 5.52329 13.5069 5.4286 13.75 5.4286H16.5V1.83325Z" stroke="#666666" stroke-width="1.1" stroke-linecap="round" stroke-linejoin="round"/>
</svg>

<svg xmlns="http://www.w3.org/2000/svg" width="22" height="22" fill="none" viewBox="0 0 22 22">
  <path stroke="#666" stroke-linecap="round" stroke-linejoin="round" stroke-width="1.1" d="M16.5 1.83h-2.75c-1.22 0-2.38.48-3.24 1.32a4.45 4.45 0 0 0-1.34 3.18v2.7H6.42v3.59h2.75v7.19h3.66v-7.2h2.75l.92-3.59h-3.67v-2.7a.9.9 0 0 1 .92-.89h2.75v-3.6Z"/>
</svg>
